X:1
T:Tip-Toe Thru' the Tulips with Me
C:Joe Burke
M:4/4
L:1/4
Q:1/4=108
K:F
| A G F E | F2 D2 | A G F E | F4 |
| c B A G | A2 F2 | G F E D | F4 |
| A G F E | F2 D2 | c B A G | A2 c2 |
| d c B A | G F E C | F2 A2 | F4 |]
